X:1
T:Beaux of Oak Hill
B:Hart's #61
M:2/4
L:1/16
Q:1/8=180
K:D t=8
|: dB | AFDF A2dc | BABd e2de | fafd efge | defd B2dB |
AFDF A2dc | BABd e2de | fafd efge | f2d2d2 :|
|: f2 | afdf a2f2 | gfga b2g2 | fgaf efge | defd B2dB |
AFDF A2dc | BABd e2de | fafd efge | f2d2d2 :|
